mQINBFOaAZsBEADOm0Tqfh/6Tvv/P7j9nqOx35t05KxKU4BMsFWSwNO8rQ81mwtzWnPpZ7SIMtWl
LETL/FUYqpLg/kEyO7Zj92mY9P7smC/Ud3NMiJr3v8W7dfY1xgB44Kqu2p1lYSRCZY/xNpvPlwSM
CQslmTLrAe2F0rMelvczh1qkl71dQLL7dfPWBMIQD8zPrEHHTgg6i1H70CISv8fB2DzH4kImnIZq
IwW+RQDBCSpwudnZFG/ylvjb8uijC5uLeQp38KhZ+seALrh7BaULnAwcQM4oqEpX3Qpo15vPuqnh
D6OBOnVao1vGX6ivcAZkdmucyH+MgeAQtPgSBLKro6bFlgJeU5gP+Ih89vkXo0R9/eWvXidV0Dvr
vKPbV9WDw2+bjsNY1pQeHYHnNqW97EtLAxecAcoqrL1TUbtkfZbnX7oV/PtuJR0UIwhVgw87QhbL
GHy88H8CNRyVad1QOat1i/3myY27EAFbFbfDQWqi5hk12WX0xTpE84E90SNLAYXbqSe4nBN+Z6zP
KlvDaDCNJNYjKnARXrKLQfEniLWStH74kVXUdrH8u2I2gHmRoG23MwrjPngXMQCvSyJPNQp6sYzM
UiIDwAvDccVp2WDKWCIhMShG1igi1QN2G/PYLSTMWY67NtH8fnrEpX81ztuqb4AFMJ3mBa3jFyY6
PtGPbie6jVQt6wARAQABtDNBbnRvaW5lIFIuIER1bW9udCAoQGFyZHVtb250KSA8ZW5pb3RuYS50
QGdtYWlsLmNvbT6JAlQEEwEKAD4CGwMFCwkIBwMFFQoJCAsFFgIDAQACHgECF4AWIQS/ACA9dBrJ
1UaovgdS4umEDRDDuAUCYVW9QQUJE19WJQAKCRBS4umEDRDDuIV4D/4lso1i/tGTuoVjG3u0R0v2
fkq8RNHpHjT3XmhRdu3PWdi2vnXJ/eTWxYOekPSo5dVFVkPlQPqP1FAgWEI6JJfLow8qjnM9D5zl
8yuBHGObUvpPFtKngqKCjQuENCR96MLFcBwB7rMIX7m3BvODmsKl9Ury+f5U0eyNDiis71Sc2MoZ
rBFCIkWN74A2eMLEkc3Tmb/GDOWfU9fn0/b34i3a7/rJRBdxYDOnZbTIdu8UYWZUGoeQlbI9wQRv
G+bc0bRz04K112NFFOTBAveyS7qhoeWy2Gf8xhXrpvjUWILBAqOPG3NCFLG4AgRpAn3pSvwJHlJo
cNqhcOyxiUL/mvuEojHOUyBP2wvrFWa2EEzSgX1h7m5vWBuv1zGSAKVaRiwYtezBST6DAc0AgCMY
vV1ZJTQiPxokvlzG4DfHasbURs+VldRTQ0sFCTroqz+qjap6J52Os6eafj+084AgBQAYXqvA/wie
PVA2xTr9bMkkELkp1ClVdeTXsjdOzUhyQgcBhgbyIYgdyI6VJlB1Mp45zYPe9kme6Qh9DfzzM8Oo
GM/JewYXFLZZUqZvcrZ43EpXzPM4cdtmY8zDz8kOwLv/IFIY57+7fU6b0ihKBF+FL5XRPqzc5kUg
gMCsQr7MD071K16P3TXsLxlgPkFCWiKWGLi4qHpzZcV6MlJ/vXSnMIkCVAQTAQgAPgIbAwULCQgH
AwUVCgkICwUWAgMBAAIeAQIXgBYhBL8AID10GsnVRqi+B1Li6YQNEMO4BQJdk1ITBQkNu7d4AAoJ
EFLi6YQNEMO4Aw0P+gNT+jMGX/j3/vcVa5SPUAHaKJWEHpHHxCLnANQ9DuRllxmmKUSitZzk+k2i
2TuH4DQjkK3jyMbF8JyQP89Sv4gn9Lgcbo/a+fD2K19ZlWJzLm/4YQZFMBhUYySo8e1yg/GRW071
vxO5shoJsyhgnAbOmlqeLcAlIb2hNmJbi+Kd0CK3HNi8zg4SRqvLqBPND4bB3A0Vw+TxpMZ4M56O
LpTiDSy8z+AMtJbQgk5AtWGFfKydSHV9CUCHNmZHIFLihTdTfn3W5pCyjav4+ARDnAg1JBw57rYn
DqkmS0wAajRJatQeg9dg6n0fbh4ZJT+KN0u1J643BLg6Dn1qPPQpzKRYH+22zNEW+YvYU+ArYauN
zTyHdi2c+jelNwQv7AHFxVI2a3wJb8cFcCYmio0MDS47okyGsEpZwbJbyhLD+4gR2q5KJniyiFeN
lwghFRkFAIDR7VmpCJGEPPBtSksFltt3j/jZsYyTyjE/iQ2IC3HA8jw/dlCu1IS5kVJL5BcedOJD
Y/lRFNeOWIxOErkf/prLZHnZdzpivcUCPbYowmw58ItlftKy9tgocwdany7OL06Vvfaghppw36uo
hmKrr+5LEBWmjRpVDi+o4iFNge/fUVqIOY8VOqUnPrR6C4f+rIrr1tZI1S9UloVwjzNgVdz/8aks
76yV3dbcxy5IhrxXiQJUBBMBCAA+AhsDBQsJCAcDBRUKCQgLBRYCAwEAAh4BAheAFiEEvwAgPXQa
ydVGqL4HUuLphA0Qw7gFAlrLZjwFCQn5TqEACgkQUuLphA0Qw7jnDA//VY+XhIuWqkHYk6w+58KZ
EPbxrbVQE9ISN4r5FNaZ4OpP18BLkFjJy/18TWlojA2yHFmEcxDNVadK8o5uW4pqoHbLXWzi9z7+
IID/2lnFeIlJGOJJ96hUNJ4t34nQaXOWIBmAyZkX7ybu72EQs9HtGk4NyZwLl1Lb/8YnSuMvlO9V
g//UB1qaVRm77nKLFDCCIAEsKeQ3M4mBFtWsMUff6flGSuROyBL/p4x1s5EftKKgIuGzqLfiLd7f
OoRUVlkYLy9fbgFJ2Wy+8daN5AOXTvIBZ0gxe1gL2bbcqhFQSeTK6bpI4qy6VM931kG1Z1VtM/MW
tL1mIFAnoWdRKZh2O48AjNCAQuoy2SZohhBrB9o2G5nfqhKy49PPANvvXD8tW3gUgQnSNGeqXZ/U
nZZYrTIUz9krdGXAQNVPfmZ3wXeA2kuHpMP+ty/mzfgNBM6T5RIdxE9P3SKQlV+CcKROA1W0bTy0
Tr0/BvtENKJkxMLVpDHyycCIsLW7rdWB8kDmXgT6h1PWvxNTBxCDd8AOTXOh2Qs/PmZWXEXXSHZK
l+S9S39TEsBD6yipKGfaim1AbmByr6lAJyNez9HQCoYy1h1SLR4R5nS7l8UqudAc9gXmPby42CfV
ga76plO5idnwuRdoVRm+/FHEXqaJWglwWs2wXYmXwUp1Xc86le9vHqiJAlQEEwEIACcCGwMFCwkI
BwMFFQoJCAsFFgIDAQACHgECF4AFAlcEQf8FCQcspzgAIQkQUuLphA0Qw7gWIQS/ACA9dBrJ1Uao
vgdS4umEDRDDuPwEEACxdBHfsz0aalxjqkwljaO7jpYPSx5hjmRNxHYIyKkeZVBqaxymX2cHse/4
28oKda6dILKoq3mbm73yJUC9OZTYgjGBqCxhCDVZZtb8FYJMPSquQ8fRkCaCccVMqiyACdFTbUbd
7tNdpvUR4YrVsWWsS2gv6s/buztDA0fdrHzUQDak+IixAAXnu9XIgzxsx7YHReV0G7pXnQDHCNjl
B+GoHVqb2jbohUeXPzGD73wNZCbzs+pQeSsQ/2CJSHW/hmiEbV4T+9KO7z11c2MKzI4val7fPJWE
Az/8tBD9efRQxHKi/9sbljNR52Cf2DdS3Fy5SoBPe+nJwU8xgTVG/5Oo8jY+IElOFmN5VIyGNRbU
3wFBqPi9p/KXsAP3uUfw9S0x3gkWWS+k6LbG35rMZCxuwXgQ0kJUmRQ4nTX77Vg5MrmJh+n2k51i
Zx0wCXi44f+IUglg7n3ZFD2ax2Al7elaS/YnYp0rkQIxvere5kMcUd1XFvoXpFzBkrddT+OwLcAa
v6orLjEPifMGEfde6gny9SSkrSZ4Pj9/B8FBiQuV5lUqengIDnKcTmS+UPh5YQpT0OaYrwLxPzbZ
WsgQgWwLwWPxRQxu+BLSD5L3eyTvSVZ0YD/eIBHy0sKamPsCAIzhe3gwut5rvhBGUuC1sJyRf/rK
mtX3W4Hk0ok9V9D8E4kCVAQTAQgAJwIbAwULCQgHAwUVCgkICwUWAgMBAAIeAQIXgAUCVX/tPwUJ
A8cfGAAhCRBS4umEDRDDuBYhBL8AID10GsnVRqi+B1Li6YQNEMO48voQAIauwden19Sf23WXSNMJ
EMNua1M9BgGWesuAkoFlIe5jYYQO1Tpsd9V/ztDUjiidBVcAG/Kqp9vnwHCDw0ckvPAQCRVX0qlx
89HjtP9NRLgGxsFfKrZZ8GheTV0dXHnKkGtbPmNiVMyZXvH3VYVV9AqYobXqnG2aLTOwEm9XJdHj
JgoLkLVkbiRkl9b/lZZjhiETKeSWkj7b8dDGXEYxSBJMGwU95odB8YxUMzq2HzjG33rUt/eFvAab
gtoTOyUlRR9NE2spq6L7JVdxll4+Tr9FyR96T+37UzvS7Q4U1Dcnf+E1onUjDJUG2DGqKmP/piK+
RH8MoO18QgukE2IkGWuYMrhSeFK50xfG00Ek1Bu45oUGBOsPTpc+0CdlZGrWvU1ppdUQ9G8PqKoK
C3a3uy2RCKTcuWQC5Zz4Sv8ybnAHuNUTPvE9MsHLs1b5TSXgGOkptVWc+AV9jHp3S2lr7Cdg9vst
LeLowH+fO+q4D3qLhNiNqYaX7K3ks9rCj+PbkGRu0oMW9cZeuKWa5BftnJXGaaprQDjxwQ2lyh6c
6bRwb0EQKeSG8Gs4JoKos7elcsSpKeqKDPertrrhrBJDaxC0WbqAOVZcZRusy6+86/6itTUMkL4K
5Sa5ZKzNc8MytOi0/spvhtPguUt1Q8fCT6OnJl5u64ZnmWdS4SlxAlsBiQJUBBMBCAAnAhsDBQsJ
CAcDBRUKCQgLBRYCAwEAAh4BAheABQJVafq4BQkDsSydACEJEFLi6YQNEMO4FiEEvwAgPXQaydVG
qL4HUuLphA0Qw7jWlhAAoYjJtaDZaGEge9j3PKtruxGrPL642AQZNsN2usir7ZPRxk2W6Uy7gHLO
fz8MWNYeoLva1QRhFxMyy3vH+O25apR7QXnpSvF8mHR3U5/2Mr3uxIkaEDw0uqGYm2Sg5P9thEvW
vLNEfzglUsVl83/CpGEV104qDRG1+m/fH9M4PluwcTUoH41GG6o3i4s14CSKfPaMFoZH7tnXmXI3
gK8w6LvD0bCBCy2TidfbMlXd4mVXNSS3y+BDsbz27CSIlVI7Y4DGL5jWNXhRhFvfPvix5r0ZS02C
SD9x8+p0yFWl+4k0b4NL1s0SaM3GOLmdcwFL2Dc6gX0tqLx8ja+5fNy1QPLNUaNtpeRFiaUmSD0e
9nsvh7m+/mctBrqRbNwz0FzQEjHJ6g72fRKERJkS+f39psMG3lIu3hl89215XbDoeirjTa1AoOGr
IAZsTG8+Fp58w4BxJzmVtJXaVQCQqqGfXpkC0WpS3dozwQZgRfnSbqmbBWk1WfV2fHxBo3krvrFw
3e4Q6AlWSR7FuzyYX7BvrHNPtk5AyXy+9ZB7N1J+3xCsRsqESkna9m1FDXBKRqZwA7M8XIcZGwMi
vFqs3uzIFSMwP9e1qrkPq7iJ4L9fgzE+jZv1SiZg6sWu4tsrodj3GfJXqncWwN34XZnOcnlubbpU
9OohBfYTj+t/zhrRp0KJAlQEEwEIACcCGwMFCwkIBwMFFQoJCAsFFgIDAQACHgECF4AFAlULzu8F
CQNTANQAIQkQUuLphA0Qw7gWIQS/ACA9dBrJ1UaovgdS4umEDRDDuCjDD/9VNr5Un2CLWaJfN5LU
9xtqS8Yy4addMA5oq7z+Hj0s/8QdkDBKbXPldLBeInzKzPq/6CCZdisYdhGgZdOGL7BbVi5t5kAl
2ycGOfB6YD9+QKIl2Q6gTPqeFtlauUQAebvoodrao+v/aRf3l62frQscLwiWyQHoeDhiOgg4b9yv
EQCNRumjqIqykEcoUEP6EkFl6K+h4kqToBkXjrF3G9bllXTaty6VgdEvuermdJI5axy0cRrtlsV0
BRc0CooBsUcpDQVm2JHUdx7zBrPI9dLL0bzDhpreRYmmdO6FhXl6DAfuIdqA1NNjxjC4zoWzO7Q4
o+fsIywkVPkxVqu2SyKVTzLPM3E7sDushZK2uMDc8okXY0Mn8u3NE/Zk3/gEpfNwmxblh5Khqs9T
AGym2JWMd6JUs7kbmsg8Tj8CJAlNEvVEnbra8wNkwIWG1+WGXN+Mjz6xNvrfVKFPthDwfwqa2MNu
NfRXtaj4OYd4zfHGxkn33O5g2FrY5VySpJdM54uLJIkFS1Giz+qecWH4Bg4N1eI3o43X+Mn1wYV0
lZ+L2j7DokxNuWqKRG92v8YjKAOFTnJctVsHuPtjtydzhRCcX/vQXOOxjIaV911JSNfPAt40/BT2
seuw4ImnxVyXbcw0VpI4k5WIVaAgus79wPzz7/yf3Dt8h+HF3F56ncR894kCVAQTAQgAJwUCU5oB
mwIbAwUJAeEzgAULCQgHAwUVCgkICwUWAgMBAAIeAQIXgAAhCRBS4umEDRDDuBYhBL8AID10GsnV
Rqi+B1Li6YQNEMO4WOYQAL2xGs8umrtX6yedqnBVInvK7hPUO3/oKhIoG+aZFXofwl+BXSgZ18Pj
k1an7algVqUwGqo4nPJu5AU5fO4nkqddnPp7gYskuUuVqScnax9YqVEC8uibCZe934vWXtCOPkAl
198tGIjbEuf6vRheGwSVfaUHud5fJpqlpHahoAONzAtUkNIPnpYx6Ji6HkgsfQAr5AVsweUhayo5
arEyE56u1lzDpB8YKXd95rh/wyUyTnSWDlFePOt3ccv92JXXMvDBeEHtIp7VYJSNuBN0/4TN+C2x
2b/HXNOhEKU/CGM6B2RC4PIf8NS64fL1Ix80Xtx7IfTMf4a9QZbdBH8iHCA7v5ikgwKzzztsrcDq
ROAZ4QC1++6XXGkOTmx/OWz14af/cY+AUMKXpuLYFHj4N2E8oc0VTIuwXODz/lueAfQfROOwjwmP
IQA1798UxmHLs9/XjBCzXrmhKly5pEm4bSbiM2BMrm9uzgAZOeyyXb/gCTQa+znYcABCBA9hwnYH
8FYiiZVvBwz3wDyy/DoZykS6FjLbL20dIUu111z5RcYGcV5IPcZiCLnBW3B7kxoa0YAhNdkhhhwG
mzVrOhvnV2WLd5LyGooOj1aLn18sYPAU6PIz/aoHElKS8mrHAs4bPmCFkA8hFIr+o2SNA9QF6+iz
5A7EAbIlhiu4/IYKBLB+iQJXBBMBCgBBAhsDBQsJCAcDBRUKCQgLBRYCAwEAAh4BAheAAhkBFiEE
vwAgPXQaydVGqL4HUuLphA0Qw7gFAmb6YzEFCSYsZJYACgkQUuLphA0Qw7iYhQ/9GKVCBRDzuQfr
Xcg2lCrS1i5NFIT38BxbU26kj44NgxjWkgZlsB43gXy+z//ZNQ0CMe0CtdbtxnTaNv1u/ACW28gp
KUP2FOAvMgOKpGcZwHqvwf0Xzj8a0vrB26cGBMz1NvxBDdsUXXyKD7lqrpNHAXUASr2UK/Ewn0mR
wN95QJCUilsr3mMyVjatwZKi0Z9eZq9JcbUvF6YLAQ1mFn1kaNPuF2r0FNx539lrMgKxjd/Kl8q8
aNuz64sNN5buHUU7jslX0Mow82LAg2AQYM3dmAJ3ZX74IdaNyy5ndCFcK97vabgc/n3FQJs3BAvN
ukihNuDfa2DEF3Kf5iAKc+IJQX1czqXhEHDea7Ijy066RiwRqPXK2foXLSyYPvM2MHkM6j0hU2OE
J8O5RBRfj6iPT4iy+jKMHN7BwoXrlnN1kLltFdo1GKuN7/CG/Sx7TzSMwOe7cO6Q/rq91D0Eok/k
VTmWy5WYyfARLBSvnyG2b0iZQT8YvoWOzvm8HDS+fPIrKIOCqiaqKrS4J+NBpApa/dC+oL4UwSiX
eVDcRdaeudUCmppMgeXpJfXkOfq1B3tXrAXpeAPSD+OwNQwAEFnEdQZ0gXSWb5okQnUSnWuMBPJo
MVphhrAKVtGmabllHlWQS+CdHInIrAVoenLiylNUT4NgHI/EPXKqKjjdGYu1vcu0N0FudG9pbmUg
Ui4gRHVtb250IChAYXJkdW1vbnQpIDxhbnRvaW5lLmR1bW9udEBpbnJpYS5mcj6JAlQEEwEKAD4C
GwMFCwkIBwMFFQoJCAsFFgIDAQACHgECF4AWIQS/ACA9dBrJ1UaovgdS4umEDRDDuAUCYVW9QAUJ
E19WJQAKCRBS4umEDRDDuL7tD/0eb6IbkGkVY8clHDK/OsdZW2D1Shb5G8RB/I3XfCJtJgZJLwuu
v7Pv+zZFA6kSKnS32UNvAa+18r0Ixat/11tJmQXP4cDiPyMzp99D5PiARaij0dzr4+2fqGh2iBeo
eJATlcwtYkUHWG9JjiP9gc6/C9bHgz2OKlr16Kj7LEPeZJu2Mz/xUSbGojeUzaNXC/4X3LVoyS5x
NptVnALFZaYSGSrGXZrgYXO/ets8KscygXgayf39ZO59s9ZM46tO800i19gJxRcewC0sGkRqHvDM
VQJX2IxhjJUkwaRbKnYjVHQAyYanp6TJ0QItTL43fjBpEwCzsINSi75jPRuGViVstCa6q+0gLaU8
oefq6+bFg0qdlIF5mVqSuuqscNrgrUAb2Imyfiu5SWBsAEe8/iCBuSRiQRj1geQ3hr5zf1J7vAok
JqH4NSfy2y5Gt9JX3X36JP6l3eShVoOjLJVgN84JxEa7OT3EdzO2pbPGXbMvuWleZNrdUx/uBdEu
HaXFte5B+G8wq8coVkG712t2vN+rDKsayPwK7JJDDnvhNh8urdxfYSmMd3dSYwX/aoJbqlajpkka
y6kV2S9gjoM48z/H6ajIOnhTqwYEF4MF8IQGHEP/SbPfaJzW2SydU2hLmTVK3WKnL4ih9430g8Dw
c55N34JGQgjd1nHS1FnvwfQ1aokCVAQTAQgAPgIbAwULCQgHAwUVCgkICwUWAgMBAAIeAQIXgBYh
BL8AID10GsnVRqi+B1Li6YQNEMO4BQJdk1ITBQkNu7d4AAoJEFLi6YQNEMO4owYQAIqoulJjbF9j
3kMEYfWU6GFPrqy2LlHQtzBNQ/BNocZWoRos9W3BPtxNUWbflzJk5i3kMNj5Sm4UcHxrjQLPKkob
a4n6ytRSzciLwW1rk7CDVnts+VHQoZp5pD0wSc8inQK26EWU9524AqNQhfoQ1fX1PSizXJ/3oRud
jSYgpdqkhvmlVQJcw5EZVfj/XSVPVeZle45JyfwtObyoL/F4WiyErp0+OOLs/xRZY2rTJbjn9c09
9JHkU2VJ/yAyXzct3Tw58Z7qTdvP5mDGxvwyK81aUE5zTPKPajyCHvqfrFANcunfpiBw0B1CbBCK
75UWYnjxuFeO2fEpxZAIBdeE2NSX1Y8lru47W7+knEYdqeFjrJMdSu3yqsopEj8SXtxb++cADokX
HM5r46K5Ix1sdC2MPKF/QMhn0IPLWFrRlIHtqXbt1v5JU1o6JYTWzS9SFt9WGBVenC6hTPpk6L6x
6AX/lwpe+gUbc2y64T7nMc/QA7XeUmS7KoHnAwjOuUVWE7cilXbkCxYsY2oMUZTB7+yWQL/HBAyq
xeT0w5XN6KZsLiFGy3m6yKZM3Np5tM0cldhJblkMW96oaPzHSaGfvAOVxVQUdEZ9L00qDbL6Q/hX
auykxsO2X2AdzOYHvlT4s+3ebDqWSYMUgYxGAUJygQsTafb5MbO96Z9WDndoioG3iQJUBBMBCAA+
AhsDBQsJCAcDBRUKCQgLBRYCAwEAAh4BAheAFiEEvwAgPXQaydVGqL4HUuLphA0Qw7gFAlrLZjwF
CQn5TqEACgkQUuLphA0Qw7i7NxAAwePeGcpq6RozaxkKlAiDM4gWXTrmW8oIu/suWMHZ6yM3dvx+
enrnFFfRmRXe3pzdmItzolT2SEq+Elm4SrkssYxrqdTk3ZdGLYFhXjtECEnWfV7QGlOd6cujj+FS
Di0wYxOOUGKxycXxAynLUKzXs4MifokNfHh0eKvsFkUOpmqBd0B6XbTjy2SIokcwGBOILUUMhohL
00HgcZ48T6O3/tXMUqaPBuswu6ycJfSQN93+h6m5estcoXdKsuMJi9Umi6uaIz//9f8DDoRRrUl2
Tlu+ff3g1lle8IF1ck4Zqt7051Cocw8ZH3imuZkIKEY+RMNmaktMy02OZqSx20dEwSy9l2pSRH8H
Wmv3hzjXqolB6hWfNKEgIwk7QPnljVoZWLsh5ltIkOybwBeyelf34gPAlfKaUaBl3R7dsdPlubtO
DwltKx7PVmrBowLOMf5JHI9mKwGXHf1vPrT5NwZAAOz2UV6J/lZcDIm90eoaydTvX/5L2x4y/5lq
WYmPsxtXjK/mP+dH9Er7u1kkZLj1/r4fMIXeZj5iOwubMSsnKhN3/389/o/pTtxu6DFOaM9VHKDz
uvH58Lv3qx7hwYZ3xPHmhXNN8Jx+AxrSZHAo6mypAMudKFWq3vYRYxW57lkDyvxwPs/FlYnOJ+V0
DVjhD5U3wNMXNtZplx8b5TrHxiaJAlQEEwEIACcCGwMFCwkIBwMFFQoJCAsFFgIDAQACHgECF4AF
AlcEQf8FCQcspzgAIQkQUuLphA0Qw7gWIQS/ACA9dBrJ1UaovgdS4umEDRDDuF1ED/wMJRj6UKrT
K4LsJ1J8TKFOwte7qYQbjNgrOHikiOZn7qqWuq3kdQuGze6TwQ0EUm4AMUNGXNTf/v+FANKKHUdV
nSNenOqI1TJxoDI4x1srLspLw5j3rl07LzA8VDyUvrmh8kllk8pt8HgEMDepRMdOkCMuTt9pQ2wG
fiv7wiXI1lFJJWVXxMCciiUHjj5gmYQRtGF6KVx5uVQdxWmv43L7GPikMBJvhAiVu1eyBwob2uAq
8+HrbHDrGbajljdV83nOUVzOoGt5UVJaXVU4A87iKuSoFWzZBvwTSqD5CqFYVmBVoNMeFRwfS5tO
T9ig8R4sBFMGiQSH3Xfc+JStxlPjGm1YcIeGZFSdIkWVt5c1igSBMd8tgcJsF3DgeLtbeixmMQTk
fwxCi0RaYlk0eaP9sOD0M3/h3cNKRzzja/0sv3zCpfiy6hunhgGtrOffSHQ+zK4DCNjJh5q/ioYn
EThZmW26+7SywOzKJmhOUfitRANtbh33Fn7d4QyNmF5OlW0kNiUsEEaNZI12AjCQDgd31ZAO1yNG
FpY43lpCOT/VWuhP+0lO8cAfeJuLViEuZF2h84E5sxY4vInRJ0/1I07EGihCYQC45B2DWaGrICVU
3i0Wg5na5P1Ew4N+i4WC44M7pZMxzp4FolTLdw24QDrr1OBbG84pH3/yoW+VmXNAUIkCVAQTAQgA
JwIbAwULCQgHAwUVCgkICwUWAgMBAAIeAQIXgAUCVX/tPwUJA8cfGAAhCRBS4umEDRDDuBYhBL8A
ID10GsnVRqi+B1Li6YQNEMO4k9kP/jIlRhb06pgTf9k2FUdky9vb2xtcA6r3M9M1Idr2WluyOPGC
TK/p4fEnkHWyoDQTTLdZyrRpQn4UJ1aMFHkMOw7/kCg1000ZgJ0EU2XB3oa0OF4d1ndiSxq1O7hL
jqe8msT87uGCK4yl9w0EUzNFc9f1H31PTEzOjcmvKIWH0mWfGuWAv+jA0su6cE96l4Al4m6KUKat
vAEQrKOsNCUKLUMHfa5ljvkj9C1y61/j0I3oS6d5JEGUM7WEsBFoiJRufcT8rX2E93TVMDfChcjX
Lq7YIbqMNCCp8JBrgsJ7+RMSxB43qmAHus2WneqIdQ7olW3VUBlYOWaffV0WWadpXhEPwdIpTbLI
rjZrJMaKgDO77zXU/rbiqSyUZ7okU4OGjwP/4R76hUu5pg1T8FahLwP80Pcgb4Gzsw7U5lcEiuOr
G1pzTHUOj6GeVLgsisudVBY2dUkVHuBoGTwONvv42tDGNUnCrm8eAjHVWhoqYcUQ9BWRUb+XEatf
ihi8VHFIMHbPFcV0KDwv2CCo9U6JsIenVssqduqXsEAkRivLZ65aea8AfpSrR+ug/zmKq6kspECC
5EaSsLRXV28PVPF3cFVutukmnuGf+TcyDKi0UAvsHyHnm1GwyCPIWqUiFOxjSSY55pB2WgdkY4lQ
RnDc0NuZHJJc0tbEAg/QNrHglHhoiQJUBBMBCAAnAhsDBQsJCAcDBRUKCQgLBRYCAwEAAh4BAheA
BQJVafq4BQkDsSydACEJEFLi6YQNEMO4FiEEvwAgPXQaydVGqL4HUuLphA0Qw7gUGQ//YuQ4B290
5uHLkuL2Y0lt4BZli1jqLeE/cNvuERDwVXr4OPzErwX59MHqC254wVr89DS41e+TA59LWtoHVJE+
CXNPGRSm9w1fC9GGhbDiDWTq7LiNrbZUKS6I1MhTedP0mBOHzs6+UHj/PK4FtsSrIo3DAVyl7Bvu
pu+9Ma9hiVA27QkuxbOCedpJwTFuCWWz5+BQrSllv1qCqZByB3ZbSwdwW3OjEDP4NS2nqyumwsEo
jUorCtB7wty1M6V67+4U8FyA8tgrCEdGsM07afdBjh4Lwcnjpxabl8iu8dnK/7wRZDPH3q5rjoZi
VFmGJTWbr/VvcV1ZKNLIH1m7py4dzGOlEvIyhThibM5zGLSWNoJxGk0rzWzXPYxWPXJ2ehlCDwNY
1GnK+FLD3W8lQ6hYijZ5NRxdMxoseFghVNBQjBCmZdcbdQ+zIiiwUBgMTKIOPYjLpV0Mcc4O9BlG
qjl2T88JmfWoIBeZnWqBWY84KkzpQGbM2l8Q0MrZt9P0hfv5VoQl4DLsLDXlGk+x0aeXmA6U8A64
yQloItzKj6YvO7ILxwNoX0BdU3Xg237671INRuSUR0RcxCCZPSpDdQfqQpmxm7lJ/GkE3ac7Z3Ic
hBeV5FwDFDFciq5PUPJtETDBx3TFPuVysOW38GbtCOgb3XOhWb7s72nInFBFJtiO9EuJAlQEEwEI
ACcFAlVoGU8CGwMFCQNTANQFCwkIBwMFFQoJCAsFFgIDAQACHgECF4AAIQkQUuLphA0Qw7gWIQS/
ACA9dBrJ1UaovgdS4umEDRDDuF9+D/4+p0QpPprTfXyAYZW0XJqmE8GGapr9B5Ar5SUIPcVYSLgz
tffrU2TEHAQyn75Pmklqh8tuVI6tyXtMvZnja6pEEqgvp15vCBoC+cdWFA5WgmfpAiDOuy8IKNdv
ZhBzalnEPRkgT18zpvSWa0rLs769Xtd3/hrYF0CWMoRUk8jH1FOr9KUR5iZ8QjeabZO9A/BKmOJE
rFt4FDYf3/WHBB/iyAbkPqULD5HcaGAQ1fsAD3r5Rj7rGwI99tj5m1HGc86n2V5MnL3aIH558zbc
lG3hjCsK1Ec7rDZNJDQN0Hjxsu8RHY0f+FMP0A22vdi2vJmgSGTjlsHaHjp49gbo45RiYeamtjAv
MaUh9qdv+RaFgco3mDVDZDJBN3F9M7LdYIXHFKabA90Wu4sT0Dgo1b/OSMr9QCBmGE3dNx6Xb90W
tIdfSfiQK1/SfDUFKuSp8VNvLy0BP6auXwxBRCmpdcLnH80N3a4ny/tAWh0QrIcwKJ30z/Q43Uzj
CgxyOHdNzC9GB72jvI5FDNwJajq6vCP4L01tkVFM5yWsbP28MUPWvo6GKmU3eqfdTzhGQZWMF3kQ
JwUYpJGMC2DEfpkotRMxZLfHHkpN9JmY66Ovr8vIc7UJsLMEkv3bIe9Ijx5QlN0G566AWjFS58vn
w3yDiTQdOr6rKpAcLkom+4smd1bj+IkCVAQTAQoAPgIbAwULCQgHAwUVCgkICwUWAgMBAAIeAQIX
gBYhBL8AID10GsnVRqi+B1Li6YQNEMO4BQJm+mMxBQkmLGSWAAoJEFLi6YQNEMO4L7YQAKJAk9Hb
oJKpCszaPPgAacV7T5N1mIfBtT0lYISWiz1NN/g76FiF34O1FuoNaG3lDSZc8phbgsTH3WuTZMEt
t33Ee+kH+zrSlDO3Uy7prBpCAHxGDuW/AxIQOzZXBiH7/QcD6nfDOX9v9EdVbEwruwwDRl2E5hZ0
pdEcgY0nTYvaMIJX2JWtyZeRdElvZQvXySve0eWr8qzoXBxdzDEhsnPwfjA3+3fVB99GB7U/uIix
mltcKTacBrv4Z/eRnWTfAktltFkv9y6opuAK7OgA0ElgdeNFHmuoz8m1EIYI3qbQEQL2MLJ2Opog
TPbJCrjq1NPGLhRB26oR/WSTqsuLZ/fuqx+mgcKLMmav7kt3Cq+XMVPQEsWkOD3Bf0jBGKFFaNW2
L0Mq0EwdsZQkSrccZuPpMvrZM1bnh4frLF0E34ZEblg4kkQCsNKAdEaPT0X5Lddrp1rq/mAmMBu1
lJ98eUKa/+HFqcNGGgtGnlkEXakFK1kFgsqAK1qioZ0zXwP902OhgDTHc3rySsrKIuTQPRtw+4TN
+x4uZWmOyT04JC7m7INkp3MxiZHoyZDVGc/Kj9j49d1q8N5dCXzDbv7KLLE3ErxdSIu84GGH3BeG
y40KnoMvCNai+6B3mtk21Nbl1+WL6DATHMdOs5Zyb+XPqf4X4U0FNk+D6uvwzXwSX5c0tD9BbnRv
aW5lIFIuIER1bW9udCAoQGFyZHVtb250KSA8YW50b2luZS5yb21haW4uZHVtb250QGdtYWlsLmNv
bT6JAlQEEwEKAD4CGwMFCwkIBwMFFQoJCAsFFgIDAQACHgECF4AWIQS/ACA9dBrJ1UaovgdS4umE
DRDDuAUCYVW9QAUJE19WJQAKCRBS4umEDRDDuHCdD/9RuLqQJxxinxmdbl9AzNAzoMY8tkMrlA6J
0MLDFNGveXZu0rhaZNupBMdVPB/9is/crmpTxNs9jccEKOIzQZZZZFAFW0r0V4/NgFRpbf4WUJax
us8vqrLWEck+pXXIvJQxobG6Ug8njBytoXeay5w1HQcJz902/VbkTrvhlTDqP0jhYC/Sx7o67gOQ
9ChX1nzF53KcQWf54GRO9pCHbg84+a8Ues92BpXzqa/bQI36oLqkUpcmuuFlm3rcTAWpi4vCzMH/
7GT0Js+HD/FdZFAotksY9Nn/3dd+ItpGlLSmnZyyRMe+jjNTuTN3RIB/2gUNZb6TpZMrKHnilG6N
odM7hW6Rpw2j58vl4QcYfCQT5fEzCcirviQOOb0Ggce/614sloVn7HdSHpDw800OjlGVA22ATvdP
JvcBrH9rjqI9uzWwl7wu9zzg69jf5n65vicC4Mg2KjW2W3Ohx57XURZMxrR5i5Av5W4bw+vtQ+1O
+8T4ClwUEhyxLNhRHI+T5fUrPiewH6+yKV0oVbJQg++ITkSVUMdBKiKZI8BbJkkq6qk0SQ7VsZxV
1M0dUEeC0f/qYyRTvOo7CN633eUMUbB1k9Cz84+0YCWhL6Gm/qB6k+QA6oPKT7jLC/0SWJPU8Zld
T4iqz3svOF0j3QlKQ7GSf/1HdzaY4gF2yX50MQCE8YkCVAQTAQgAPgIbAwULCQgHAwUVCgkICwUW
AgMBAAIeAQIXgBYhBL8AID10GsnVRqi+B1Li6YQNEMO4BQJdk1ITBQkNu7d4AAoJEFLi6YQNEMO4
TTQP/20v3ls1vuJQbtkCaYGlRY8wb4fG2aEF2wnezHjoPR2QTDADs5Wt9Oujoz9L+ruk/GxBO9QI
/raUmGm4cDfOFGuOhN+DY3AGIiq7Sp92lKx4nL32P+pR/taMqb7VkvlY5Fpzpk44V98EAHXVO3iQ
3e99j/V8cMFfd7lz05Gm5UT6vhLaRHyOFsjCi9RMYRMaIZDgPmma1BnNfx6+LJ/Bzt2BrlzAGXCj
2s+ZmIIaObSuY/IRw1egKdx0IryqiSlXtV2LuWxWzZNWBZWnR3GK5DHTInnnt5b2Pku9OMqDMuli
31M57DC9fsOakhV6bg24MWOShD0eP/GdZW/OM9JJ68SPpqCTTt8ygWOaBLKhL+rp8ja9LYS1ZQyA
EZxzfYwKc4JKvE6rmvGxgc3PZAL1s/Jsr6kFVf4XdNH5xD6ss/vS5ujlNHnktH8VG7I43I902NMh
RFMDyc3BjY/sE5leZ9Bo3LwxNjpJcbfwNqLtkDuGeOgvKKINUuWKtk01g11HBGWWbj2cQg6NYh1N
sVVlyfiVUIHMzTncw7MkPHASqGnRyR8eIc/OHktL7uOQZIGQZX4buoSbB2a9qqj3+WVcHmnxrM2p
OIFkrC9xZ9eq6X1REHbUpcpN6Ig7nzMw44LZiCwaClHMQ0JkKcE2ieZM5FMfgw+gTlOxvGQOwt/X
Xf/WiQJUBBMBCAA+AhsDBQsJCAcDBRUKCQgLBRYCAwEAAh4BAheAFiEEvwAgPXQaydVGqL4HUuLp
hA0Qw7gFAlrLZjwFCQn5TqEACgkQUuLphA0Qw7gQsg/7BKF82xLOoJt9vVvZB30e6QOPpLWfpJcG
Kr1WFpHPV7hYVu5ZRm8+7ere2kfM1AQK/AtbWHftDLlmnRjcUUWZvZasJNPDlk2377nwiDMOCqLg
l49RxEK2ASAY2mgZ1/qvRFkHQ8ZEBWV2FqC03hAzKqarbOgKG5tDOkCG/kR+UiPEs06UA2Z4JKoe
MWoqQ40gkVYUTyU8IjP1MWhbR4l83rwj3lXB0MiIyxzPZYM7FQIF+IW+REV0td8nrwCeZFFXl2cU
GhKPrA/OlI30gh4JeTJSQTEgdvLezyJNQZMHo9nvZzlx7EVCOkZKQU5WQPXZ1iK9sjFogNP+4kA4
L5+tWMq93dxkC2gTqiQzF0554P+cfp/ulja5ybvEBy8e/sDuu18qt5i4DXhAwJ48y9sBREJzKcXq
5DoQnQ0y0BVi9CrdoxejXTKpZgN+Ul8sj6QoVl0CsIJDNGJTgpJSG+UhS/W6OnXP3/g4ibPH1dpY
WEmVHT+GfUkIc1qp6jxvBARfOac39asIqn5RAdYReJbuddiusgBfsywTxLd5zHLXZgjUerkIL6YH
vmZyerQ9XwWCvJgZI8T7wuTrUU6cJRwvEQ/mS77il67y0oOjohzen9d9ZRJP2AV+XeB9lvJ3SavK
dW5IlmLTe4818sJ8B7e8YRxMrlKWf9Mx3zCkoNXIbm+JAlQEEwEIACcCGwMFCwkIBwMFFQoJCAsF
FgIDAQACHgECF4AFAlcEQf8FCQcspzgAIQkQUuLphA0Qw7gWIQS/ACA9dBrJ1UaovgdS4umEDRDD
uAOCD/4rDRhp2Hhv+BPmt5Tin5G/9OomA6wC4VANdwkLnBbv/9kWHXZrNOYWoMpii7/cH2XEBzkG
mIknZMHIYLUbG4jdNpEeIivv6b3iO6Pl8tbFnKAxOfeBYYMMCNHZRUVZ68LQ8ftj7kj1NQ/CCvvk
s/DXx1hA/eNdfZGlu/g0YGzLetpleojoLSyiTphpxyov/MqfUCrrTe/s0XdWLQGV0AXADrrbEj0S
EZqZEEEcM+L7rI+ax86qr1kfNE1rPKJG7z1HCzG1pklQVhddUjPD0NXsSjVL/p5ofhTFbGqvRpFY
uN0qHCheuElGOwk946UtXwnTvbe4vIFxdDzhsCppYDbCxw7N0M8ywUVL5aZuuwttUyeycMx6g6nx
FEY0E7tyyFv4KWCaa2HjqnUfUNldN4+uB9NrFb4/1Ib+dWeFSNB5/+8PPMGMWBC/0zWABHjEcamv
Lp3UVV9yDuzvxSjvyEFKApQyQkRQCb5/SqIkIoqLdBq/IuVdGPNfoLn3xDAdqHmnqpaU8QvHrT+W
YJn2pDHqQOjVQKAGA+WpxVepU28CyS52HGhN9ninefEuSW8sxMjLzU2XO31nV87D2o2mFP33QQ0f
wC+AQPRkdQc5WHRzJBVa/TOUCaVhpnH/tCQSsovw9FvmwbSEWAKxcAQEGs9AltqEo0RSP2SDxDMa
UABZookCVAQTAQgAJwIbAwULCQgHAwUVCgkICwUWAgMBAAIeAQIXgAUCVX/tPwUJA8cfGAAhCRBS
4umEDRDDuBYhBL8AID10GsnVRqi+B1Li6YQNEMO4ENAP/03xlrMfqoNfCPH4ULJT8srUl1ol2F0L
xObMvF/Y23s/yn57xDwhp/HSgGlJ9c4zhJ8MjqF+JOEinF9CjPrv4qSwv92QZmZlOVPsSFCshf91
zrAdaxeoCTbuYfubdDkE4fy3zw/sniWjq98noYmcM6fOW2y6a6XV8qtuJI1a7VSJpx14m7Bo81uC
mGG5BQKUht5/jwD7x5BnSx6TJUFjmVTGQvhyD+O6rlh8uPe9YjfXiFS97rJQ6FSb4nRxecuveINd
rewUGHzrCQqgYtAA5H9xSDkl2DSJEHhCG5I5OX80IG8IFDKhl31wV0vop/3tx4uONto0j6LF3E60
+avaMBBleID8cZpMBJCaP5q5tUbQV8nC9X/qyUDN0zkJ8zWmgeIt1+9NeJ8/H2nCEobKUR31RYkP
tqf8Sph5Y0eaRlZeePGncLGbzXQtcdakFY26sMk/IWg5MZwfKssGBDq8UfnJ1wIgSoPmfU386p+9
Ex1GrHfxbi4wypjJoY3qV18PRhvRtpNFbBsKKYdkIzLmGp0rXR6co5UxJfT+Cc+oFHUwYsVDvcig
t5xmh85iQnJQn11YdPRtTO9W7hU0/H+0fWmrS0GW903zOzMybFD0Tvqr6giy8qjNQOluxnsuMfLq
hYyyGhp63o0PcZtG4Rmugae9WBVnxOwI7sxwpaSHydEYiQJUBBMBCAAnAhsDBQsJCAcDBRUKCQgL
BRYCAwEAAh4BAheABQJVafq4BQkDsSydACEJEFLi6YQNEMO4FiEEvwAgPXQaydVGqL4HUuLphA0Q
w7jYbBAAq+9LNN0v+Cj2UicUk76xYtWOmGNO4Qb4vVJToJ4JjuclAc7Yl+D7gXq19SxLWQOGPE/O
T+bkUrK+K4rET1AuKehIE3VinhatTlAKngIVNrXDBAsYiKEbCPN1sKAL8iezAKXaTX4WS3wTi6n4
3Lf6k+Fdby2TUcbtMHnLgbR5TiyTVMeIUuzvdigJAy+lLFZoOS4KgOYuOcfIG7wcIX+QcTMntTEZ
f3977OPKEWOD8Bf9swLRdtEgdhrK7apF41qjUUglRnX2ycZ5372efkEMRTS0DNO4iDgRLNX6eCU6
4cKy5B51Hd10SjRZEiScvNZ20Oc4X/Wf0kr4qOUpw1DX/+p3lHg5b2R1hHePDUnR3qR1K8/eC1oj
EHZvMRKKugvrr1HSqoz3OMitSJ9heS7auQMrxo7f+tVF8hS6r8KDZs76YwA5w9TEz/c3d3aXyI2y
+xwKcABerVrz1C/KXML3fCyHgyNVl+NLmcIGchnJBsI6tG2YN7QfJkQK9CCeyfEd5C78bGmDp0F/
FIWANfpBrRtDv9PQ22XIh++H6EhBBmRApMDSQQk/8B7JQZKBkpl/Y46WvWJhVvkth0B9yY68rqWZ
qEs9Djr04/12VW6QImUcAgF+7WWq1jPtK/ODvEN4SlSN7KmIjdjW3L5qFEGEtR1sG+tGJ+gRdUyf
YVrlB3WJAlQEEwEIACcFAlVoGSsCGwMFCQNTANQFCwkIBwMFFQoJCAsFFgIDAQACHgECF4AAIQkQ
UuLphA0Qw7gWIQS/ACA9dBrJ1UaovgdS4umEDRDDuM+tD/47nQ7kNCiCN3k9RGjaZezThyQ8RauQ
ORucwqEVQYC3i7IOPqWTtCiS7wUhYnyVUG2JqC9COaC2aijIzSD48OElj4BmbSmnA0hvFqFe2W4D
Ay25kWToUBS+WZMVEIr7Q/DEGLI9gdWm58+djqFU7ckM/Ga2TeyiBkuaPS11mGeaHON4tkLrxJ1d
FjbcF5N4P56TibaUsA+ZnBQc3uLYQSqLDvz0V/rhBxLSW4RiVDIvsxI2EwrasiZ9ZyUVnAp7hWkT
frEN2hEC1aesUU1raZZCo+SyyJi5z3smh96ZIFrsY+a7qOjnZihnMuCczu+73vho3VH/vXvQKCex
Xt5G1knOOL9DthWXFmKbwOoAg5SfqE7XI2wNzEBThRPcV+sf9Ym/z95vBahzNScTm1aofSW8urXt
LvI46NmTje16pe9ZS18uz+Dn76m9qWPISc9IysluD4zudobYy/ChZVXN7lNSFBBR4viMrtBsFx/Q
0ijMCApv2fFKj7c21Z2yoKu20P1gGTdFiYTu8h2vnR23iB5+EE+zS1/f5JeyaDRh28cFilG/wwHt
5ftcPLa3hmsEC1YHB9klMDC2XPv/uwJBgR9terBgd6Kn2RKcsVsfM5CvRGwAlz3Ebh6dy13ppGhV
rv8RlIZh2dB/dEoT3PaL9gFVrmXBI5VHZe9nPxJBicTVr4kCVAQTAQoAPgIbAwULCQgHAwUVCgkI
CwUWAgMBAAIeAQIXgBYhBL8AID10GsnVRqi+B1Li6YQNEMO4BQJm+mMxBQkmLGSWAAoJEFLi6YQN
EMO4h7EQAIKzae+5TjshiTLJ1bS/q0bw/jAumORyI3rq+e6OykFrzoOA7D3SUtXhn6Yyamz9GqG5
VmltuyecL6p7aMRzwebC12t9En9H43S2/iBNYT2PKt9xJDnu1frI0D1fVz7QEYjb4s/Fag3UsJk1
7RkULqzwH+w8DDmFSd2Jeu0Ydj8lkMxkQFKT2GAaWb+YiTZhy0wpdYj36UmiR9672Gxl9lBcRgxP
70jb6QP3bZZbZoMG3EQsROm+4P1HEghGgixIQ599Fy+4YyUR3/ZYK4npkgYi1TF/1+bAM6JQtVxl
zaDDzCZZwDy86GuC33umHG/2BVBuJ8Kufa62CbaAJtqYFQevQnXdY5E29FfsT8AkcoQ3PB62lm6k
/R9/NifvLT9Z6Fe5UqZpLUZL7fT12CY2TdWqNiDQ9iDnkj5KVCq3z64R+dTHyYpnKdab+ewyYhdM
jeWIRluB22Dba8TnAtaGrTlUkxr1Rj84IZyHX6ezUnPaJ/aR5pQ08D8lkDi5Lpj8M/cYvD9Bxa0t
YxSS+9SKJIPUCi6BNh/ompV/tSJ6uNBtit7BBB0T+PQpcUBxUsxEFvr03dE0rEtPv2u5p294sMKi
3rUV8WLnDOYh+MCR6RyjFTq/wLZGn8UZIaHj2t5gi22UZp3Ll9yp02pXNv51BErdUe8SKBQ1FBZ5
zHZ15RNOtD1BbnRvaW5lIFIuIER1bW9udCAoQGFyZHVtb250KSA8YXJkdW1vbnRAc29mdHdhcmVo
ZXJpdGFnZS5vcmc+iQJUBBMBCgA+AhsDBQsJCAcDBRUKCQgLBRYCAwEAAh4BAheAFiEEvwAgPXQa
ydVGqL4HUuLphA0Qw7gFAmFVvUAFCRNfViUACgkQUuLphA0Qw7g+vg/+IX4PmoPEIZG/iU0oPtbe
AA3x4VvvWrj1tXxfXg+35x1AcOzmhIIm1Q2makpyZQNjuUr8g4nQ+NgnJGSh23ImK2IumEhvI+sf
5rlUcvSWlNmGoH9x+nTgt/874GbZpgAUPOeiqnW9ZXrzPTYIEiWPPzP8AL8OE4T6DIZdshAl4lNd
7HgUYG+OK5FETGz4WrWb7Vjxg1/gUug+nByJwI3P1MqS6Z5BZJXtjcFXjsarZLM49ctBGWkldAB7
BUH+wH9r+WqUD4g9ujd9U+sI40azaEaRzEOWv0rBzcMhrnWJ+4sKKftGDe48LUDFd8R43oL+viZJ
IPNXrB8qG5a2hFWWak0Kp77+BRwwsyA4Il6ygZ+WHjML+pP96086hUPVm9GvHvW1c/3Py1gqfkim
iLlOHJyNVhuzKMur2FoAiCuXFDX4zfbCZI3WuG0HJrI4mBTAydAnF3lfuu5Mwb6O5VuuRnO+Zw9H
x/rco381cNkPZyQTHp8+GP4A/V0QzJ4fzS4G+a/9eCJDAnNHjRpvUzOR0JlhiTIfjmJyYC5xCg4w
dYbD+C9hsVDkOMXuKn+7kjv+q5vY7yQFF8Luudan77U5UCMU6k7gV9nDDsYKcOYFxY3/JC/nwK7x
c1+TEdzrRzxGe+NmPknDEmenJU4Zktjx2nPAIusvBelZC6YcUKpZjOCJAlQEEwEIAD4CGwMFCwkI
BwMFFQoJCAsFFgIDAQACHgECF4AWIQS/ACA9dBrJ1UaovgdS4umEDRDDuAUCXZNSEwUJDbu3eAAK
CRBS4umEDRDDuFS/EACQD+5uUPVlQmoDuniLlNfa4Xrtn/ZQ53wEvfGws59w6wLr1W4soMpFjG2G
y99XgVBIQhqt9/ltluvhrcRRBmTr9IYiTBBhVzTYH+ZDViUIa8cVV8bGUANoAo6QpuhXeu87WsgT
VqxueUeJLpC6Ir/f8TwfGo0IFSLDJqFFGW8QkT5wJ/mgF3w9xSwfadJ5xG/dvDTLHx6oD7wsa7YX
x2VEOGX90K1eZE/x4l1UFGEnUZ+NgwLAy9naYwl5lp2tlnDNYihclc6GvhP/drKzPxX2IHzg9KRc
2M1y6OQSzJCTsE6YhMNTMh+gsI70UXCZo2kBSd5I8QLAkM6iRfynqSAxa1fg551FEPsm/fqaCXTq
NUMFRrO2zDfxAIqs2kqeYilFkPVz/L+713FkSCY8PkCU16doo+0lvw9g6Uf7XCU5pIjJ03LPZU7D
Fvq/UqcKQsBUTdeHlrF22oigXE4lcjm+CcSGbWt22OCEx8ILPys0OA8jh3CzAx6KcZXJnpNmYCZ5
grlwLcNp94bP6K8Ar7ZFpvyRCd5OIkLiW+oT6OR4aqULk6sXJXithnZFLEzz01Tmsp5zDcfBziDq
9EQ1ZMgC5jEOhZYJlSCl+QOa3UwFfF1U692eEwLdW27vqDv6Iy8Q4yegKRWI44TMasmyYJ9TIItA
jTEmdGvjnZp+Z5M1lYkCVAQTAQgAPgIbAwULCQgHAwUVCgkICwUWAgMBAAIeAQIXgBYhBL8AID10
GsnVRqi+B1Li6YQNEMO4BQJay2Y8BQkJ+U6hAAoJEFLi6YQNEMO4wDMQAIozjd2B+7wKWUwTrg1V
DR6tB75E9B2378IjXviPu7l79Vdb6JA0ehGUrKuXd/PqcbfsovoU56tlpewIithy3qUBLAvaefrw
1yAsZ/X6zUvMExw9x0/DHtL6Dmo/hRdAOq202VfEd5BqO4+0aUxwjCTydYbVRHEz/TilslhRRJs0
KgU2wDTJ72m38hJbbWGmoqB+/RHE6f0oIe1SuvQx+008Z0rIPWmPT+gZRe8+MpGd6s2AkQwsjTMG
iM3b4tXAT7cX3Njq+F9HOC8UcBmpTCGClw/OuvHy/OiN/D9p79vs37wZoj/o2vLMvD8/nhp1J9E3
sgxhu1KtxLK0GpNfekGOJrxMbyEDvPEvt4Xz19mQ1POQEXEtVhSpYuXGplOoHFma+QIl08e2234u
DRzwrbRs4YHoSkJghslO7RcNeDwJRXSnhsQvZMXebVgsxFsHBiF2ddx6xAJP0DvpfV3VtOZm8pgo
M6d4ZXxC2NzvkuhSaw/UixxgsBdSBtb/zRXv5sK7Gpy0AGsUY6yx3qliOQ7rKAaD44t5VU08UstB
j56W2IhHzdcThmGHKVoUoaf7mNOGIvnFT2LNP2j/U90rPJOC9zs0U5UV/KzRCuYtQ1DbRqqsBPZB
7hgcqsia2GNyGaXYQaMFAb6zxF/EwPIkQ28gBnQ9wULAWMjyJQw8xgqciQJTBBMBCAAnAhsDBQsJ
CAcDBRUKCQgLBRYCAwEAAh4BAheABQJXBEH/BQkHLKc4ACEJEFLi6YQNEMO4FiEEvwAgPXQaydVG
qL4HUuLphA0Qw7gllg/49gXOIe4cZzR0Rv2FtGdbM3vA6thyg9JNiVj40D6bAkokQrx0hYR/cPSM
doxFnLSZjUprX4EtBH+TAGoHyMIf2ttL9Ok+3ga0kiPZvPXniV+wkqeSYTBvQhXtJ+TUPqNOQT7+
dsyCptmEsBEQQRhYIbFnmzvUIlFsfuKtSKbZpdsPHhcltTQ1/y6278qsPKgn4+KKTkiDJsim6l2G
v5Wb4ECZxEAl2rLRHrH0J68TveukdpScoFbh7AdfzGIVaCmLZFPpm9tTCcy5jsVW2I2rSyN8hqoh
cj7FzdqKHvdZZrBXX+Ct0C2xLrDu0JdHpFi5/AlvCXZgm04WwBxmsq4bppNgS6MRx06q4N+gM6zC
vt2SDpH4KaQQm7Xqc1PFjFNkl/E0do1ODC+P9LBXQpESl9yrCxCYJF7LNHvfXQoCG+WasgTUqqlh
LFHsZQYBNMi8htNHDp9l2S4uDaPMJ2tcjHhjtliuPL/42lSq9TQcq7yABt86kevrzNtGnJ3bhRD1
/DZW4tYthjWlz7VYoBj6Ys2QZIzcNor2RQqMqz3JybNilWGOBqBM5dSPRD1c0yRFpEopZxO1I4Qv
FdUcAszMn/08p6A55+RK/bUQgF5aRF5QHO37N0Z6etK3/fwfxFFlPOXqLpxVMc0k4GCZ0lmzVnA3
/v5etRLlU3tkIcOeIYkCVAQTAQoAPgIbAwULCQgHAwUVCgkICwUWAgMBAAIeAQIXgBYhBL8AID10
GsnVRqi+B1Li6YQNEMO4BQJm+mMxBQkmLGSWAAoJEFLi6YQNEMO48+EP/iFF1xJ2qpKNwqU1V+qo
+svvaHVJyIeKeO4HTtfbLtVoSF+mN/2ucJwnKmB8H1/C7Y+v2W1Id2PZ6a6z6DOUcbrpaWRvt1TN
WpJryqviRfd0DYBdnLMfCDxegZxyY/kFxgPLsqY7YiCEesRi//X/4PJam8jWvBWXlfXr51Seu8yi
CHDYEVZaXNsjabE46mf5IXm1g1RwKohLflmTR776NIwK+/U+UcQ72qRIwA6cnj2q2ERqit+0DufG
M7i2qpL0EtmPSnvin/n5JGjZGSfY/Bp55h5ytkrZNVLc6et+WRPNU1kDKjHpQSnMDAqPwsZmf3b8
T4p4gqsH8cEK7TBG/vRBiXU0QQUnAaaO4BUIYQywXj8lAJfOu3ki5KXwPQw3GnxU+wat1G7Vnq5y
/KqntKuoLp5R+QPEGtvJhcCP90Z2DxEV1IGkHLZCmJL5PEin6Q+W3MxiCKWmqafX/xuQzN+Xu8N9
lV2ulJ0zn6ODflWSPqlUd9QP96dzjTnWjtBraCu4i9q8oWjNZyijLWzSB9fYWDpxQ26zcn6nAM2k
mFVq1nyRX/Vq0ABZNKfqYXb7AAZGcoiQBGRl5Va21mRlSEhmQEAiAVAvrSkIPUNNGuyB0Hv/8FaG
fDAsl6/vMYaxcFnjxwkyYRFlrRsnwXVa2ct55UpPkjG9Tt0QXCp8xb+otDFBbnRvaW5lIFIuIER1
bW9udCAoQGFyZHVtb250KSA8YXJkdW1vbnRAZHVjay5jb20+iQJSBBMBCgA8AhsDBAsJCAcEFQoJ
CAUWAgMBAAIeBQIXgBYhBL8AID10GsnVRqi+B1Li6YQNEMO4BQJm+mMxBQkmLGSWAAoJEFLi6YQN
EMO43IEP/iGsTzHbUMPeXBRV6V+UzAg2Yhfl9ArGCHZqtszZ8VOZC43qEHjUOhxlWj0pWpMli3jt
B5IP7ybZW+VnV8bfoP0meygVf/imrBum8Iq5kUeOe1kchURYak0gRsGZf5fDa6gJ4rpLCqWGqxC7
hu4BpO5oSTowV8bhoZC/38WE0rdO4HK9OCHot5s9qNeRGQRrFuLDtkArlh22L19Gu/NJkvowSJ93
WCR0v2KE2oL0/8dGzTBMIaSt2JFyYvmDAHOZMp8LePmP2X24XyWgJdpUk9JHf/uP9JPcv/kIP5h4
WdneaWnyNerPeaTKhpdxtFDkCBDKmFHUI0s5yvDMxo3F5apvgUwxbdbuvNz069zFZRvGcTJ6FE1B
dh4voYPvi7Hm/TY7MyySX6/wNOHjLIo0a6vYrOwrxhJ8ryMagiOYtArd7WEvpKUjZnw5TBq1N4r9
tasTtpETZ2lbiPykqaSSjQQA1XtjkemX5VWtxgWkIqwMJ0bpfYkgXi/RCnADbtxPIPtJjJxCqIwV
qpXiZkBC/xH52OpIpAv42poX44a2UbSbShRUsvA3ksOv80meDajvpZhWB0sfydbDvUWURv9cgHDC
lv+ewbfoZegW2Dnka6iD+5KaQSlvT6+j3YHyrN7fmXAiw7e8NbeBEW95ku4NK7hxJTBp3Cw3Coqn
goo8QszUuQINBFhhJbYBEACu82FvEFsD7zaMe2EWTFNAxUF4XyXT08nzP6vVh9w8CPzq8d0yvucn
tUtZsdjDSzieHCEmB1vAtL97CpofiUUmSG9RFxtWNoRc25MzOrDZOT5lRkVn0bDkJoQJ8w1YAQ11
t87jQ58MrlGHNAtBnnaJ1iXV1YHYPzPXPyfU/6OIfCPcXzr/p3LPuSnYZmcYV8oqlH/c3iLzvew3
4tRtSwYLN+Scfcs//v5OEFnGc1ZDI41+LqlymGqtdaItbbdS7jTEJCPd6r4IbFVN13P6pF2Tm+2Y
ZKvluqcmFcNdURREprvCZDk3fNAz4PEeThDk68z0wRe6vdirOUoPhhgl5E8N3IbCi2OYbtwCFTGo
4lSV3LfEKnolhyJ49aGX0cHBH6Pa4bm5u78drqlvGXD3hobY2dPpDzkn/Was5EHIv5zdjtG2HkuB
raxisu0u69iZXkLNO6d7yHQHe1vmYVPRfSW/X1myW2caWPtRuF9uvEll6ehli77Rnf44BnRc4Dv5
qbr+1gG6Bfpf9c5/bOMUZjYq4k5SL8yLzOWYLVTcSzG+v2qdQFSEbD/iq3VD+5dZXYhCO4e25Rdn
rEvdL5oI6qtrOa6hAX8BVAObGQVfK+fGs9K3ncAyHOW4WX617/2Mo17X9gzjBDz/CUVUYpHqUgKP
NSyQWjHeZPY4o9zy0txMPQARAQABiQI8BBgBCgAmAhsgFiEEvwAgPXQaydVGqL4HUuLphA0Qw7gF
AmFVvWoFCQ6YMjQACgkQUuLphA0Qw7hJuhAAqiBJ0VjNUpjV39vo5p7eBKgJZ0y9GSVhFc1iohCj
xfRZD3WrwGRfVXzc+Q9myizbWtO7sZjHMzKaCR5YxW6pOtZJa/6rDLP24A4a96lYIdKsaj/fUtK7
ELLiJMvghg8T9y8jNcozbkqL0qG0QPSPGsH1miOYS5yyI3idURm0mnPvDsBUAcHlUl6paGb7LrfH
rwOv/9AeR/Uxw5ymokocgvE+5+806+sY+aVKt3lRY62cyfytwmReEioZHs3nBTejKyHvrfVNUhaf
I1A3uumwYSukxrava43i2ZkkcX5HbX0VCE7DGo/NtLmwQvdMzfFwbY6JIu+7i39AUeiwk+3n4h7i
wO7jF/jHq2hDEHFdttSYNqRCLNXuUX6m5AgmDJknFVgrdvLCettUGPvyW9XXTf0TAVBGej+dRTgI
AnI4IMcJVKdkSjP2NJ/5xkq997nN48JHelM80WKzn0M+GAR2dDTSABWws3hxp5YDl3RCkmUgB1Gf
CC/wtmzLeI5FCYcJ2z/olX4LFhIX/R2QFiuUAtuVxjNTFqRELF4AsB6kw4WeYDpvPr+z5fjkaGMo
kLvnyL2J0Nfk4eCQKIwOnlSq6LVx2wnBbHyvqk9Xd31ZjIMRKrlZsLH66pgupHtdObkSxrYfspeW
K2o9bpfumqkZOk5lHObVqjQyjRWX7345uQSJAjwEGAEKACYCGyAWIQS/ACA9dBrJ1UaovgdS4umE
DRDDuAUCZv0/NwUJIWgcgQAKCRBS4umEDRDDuMkoD/4itO3qd41Pein2nGrwSe/397/DUu8bXzAX
5o73+nYKUj0dadmNaGtwLMnJ86vbR56djfK0req/yrOci0nm654IPa68xtoAS0nE9S2htOg2MleU
PV/6Fi7I15P5e7pKMMaBZHc53UmWDCWD8uuX2x06S1arewZK5P6C4udLxLK2eKypQa7+gD7kO6cO
3lb4sZdF663f2RKaSa+H75erl1I9ghF5CwhWRzGdpFfPWRYN8QjKFA2dmGz3gAt7xYLZy9umhNIK
bY/S5hnB0TVk69qnVQ7enq5FYh8JCshVybeuODudbqd/AjY6eY3TQqQnoPzOEjSje9i2TkjejVYS
mwkAgSnxwajq24A0MZRdcXXHqrmTdkMDmh9+DtLJiw4m8ihwdIPDuHRM5IOvZVr+oRdUl1sVGTdF
JLCFKQ6cflJGcdoVI/uvyPlZE5r0Ea8oAGHT1wJ8LkrSmN8fwwaHNhi3SZ0ScJiaZ5RioETRxYdc
vZf1MWiX4M13tN3cJ3i0AQ0H9SB6pMPj3lY4yIPkkIYxvO/NQ4QxmZtBRt5hltdwHW8FKuypgQOg
uXm66XFs+cebSnNOzhD3E5MEZtfDRq0VYAajR74LWpCmVMf9sN7aXfQ3GrxkcA5XHSPc1yFxLjSG
ixNf1c08gTU2tu5E8MGl1Sb83c1c+p/iUDLbB9VRsLkCDQRTmgGbARAAzx9Ffkxj5U1vdXA9AxW3
zgUa4KsM51Zu/PlVTLHA08Dvm5HmajDC22FErZZ2OAhPH1Q5fCLsl0A/ucPZf2hU+lrvIPTxS98O
VQ95+j4Z0JS+X8xr6k7KXWJkV5jpUUDbGO1shipLCGgwttv+TSzUWEUhOuDVx78vpnXkgWt98TX6
gy/UMyqLGEPg553YVf2CrCOjJvRTUEqdKbQpst5fLFDk4imqtkyqtdPufL/xgTv9zL61+DcRNDQM
BZG9kDfigG/JwvCFB+bMSG/HqVlJEQt4Ybn3b+soPoS5SyS0cJ/Cj7Nee9eCf4QZzJWIGfhZhWL+
LXjkjaVEkRu+buCRBN3Ue9Nc2dZraBsyPDXrisI5apZSGfHLx8IQIh9Trb6FSAnfde5cdFBcIixX
08oEuDGEbPVGIBDITuf0clKYyCbq/fAKKiJCH8eGuiFQgaQXbk3Y7tuFCOvln3/fjn6ikZv4CHCk
JNZABF9b5IHbny1+KjqLSVKQBCas/AZNIB+yJP9WNuGaZz6Z3IScKgr4QHMyiRz3hRmx7uFg4vQK
WMUM/KVcHWx91De2YXsenjoxprhuz9VI+lXyfNWPWP0QM7QjPz979Dq5Qbi4Tl1q8JzHQE0WcL92
hStmHvwU4sa8cq/oiPSId2rYxpya7eVYCB+x2bq5WGym8xvaOMTyj+UAEQEAAYkCPAQYAQoAJgIb
DBYhBL8AID10GsnVRqi+B1Li6YQNEMO4BQJhVb1qBQkTX1ZPAAoJEFLi6YQNEMO4Y2EP/2baEG4x
hII3r4p7Ogi8xSS3k49diSdUhvJqNxu15Iyk6y1psl90KzaIxQ0YS7Qt1t3dYGXPcGWz4qD8LQOa
j+oM+tDGZ9QDbCEliwx3dKMKfx+uOGrp4cVW9CAUrzOAu7IShwzk8tTDXUj7Z8ahBTUIgNeL9KCg
yAu/cq+RPsy9DPWybnrmpremvFCztWZ8RW+fMjNwJdpq35eAwjy1eJdxxPXfHCIdH4Ju1X7oseU8
37zGRQQtK1Et5BOEmvbpKoh1PXZpOOK7qG0nHQpqWndozCPcslw0mb1i9guxQnzt7W4n5JehvGZe
tEbglUZvtilGLgbvOeoyPwlZ2+15ESyg/20PK9FTMC37z/EloUMsklwiy18swehS/0kihwKlNHcN
y738XxyQmQODb7ZlnnLI+VI+t7Qn03cuYB8gBGItO55zeqM1+FAb/2tpoN/zwrnrH2orR3QsRQYi
DFuL++8meumY5vMmArhW4CVb9GJHx+nZLXUM/KT3XiFS5pupyqQnNFx7RtNgaho0o3EsZyTbPNRE
fw7tUjZNID/ukOJUoQ1nHd2LVdU0q9yIdUVSQx3I+oks0HHmsC2udqDz8PisVMeW6KBIr3YcPNoB
A+uQjWuOQvmjW2LTJpjMSLzmeUvO68yWgtOgvURO3EcyL5Bp/CHLiPBAx1ym08lnLHA9iQI8BBgB
CgAmAhsMFiEEvwAgPXQaydVGqL4HUuLphA0Qw7gFAmb9PzcFCSYvQJwACgkQUuLphA0Qw7jixxAA
zE0U/kovw/Yxhk47m7Oe5QqFOYR9OL7bcK/voEjjl61mW1OsJW5iaufXWiklBrqxdO9hFO9Q2sFC
OOInNU0bP0wbnHxJiar7n5/KR4BG8mVuarkTK4uJ6SveCbKty15rv3NtC17golTQlSjImFjIPgou
bwGDLUrCLwhLc2Nq8HZz/4oCaBWvALuSBjmf9jPfuALUyd7OhcgT1cLZzUedPin/3+P2Bme+XWkV
N4rsbMXXLARBqiAO0S4IXhQRGI8h0yv393M57+crxVQoQWcUDD+/woTJpcZnxdLW+prWsY+4Tsop
ZabmknpHUY8aQ87YxksbUxtzzCptiltlaNFrgebMDjVhqaWSGvQD6pUK5BTm9mBEmDYk42L/NoLc
f2g9n3hcjFFOB+kLdthZaifgMfmHy8cHzrtnO6gnVdV+5p/TiNrNkq2NqJhI/9Wm7GGd+9h/rH27
Hr3uGuo6x0HnscSq76lwKFPAa8NfMaeiL5NPu4X0lR579S4NhndFg466p46SjoALFAzgPQLhvGId
UHFzD+0pPCqszIA6pfl37vu5KbSmCK9k5sPJXjAfhD5Aw/M6OLngvFHhFNKBZmQqHeJCm5f65tgm
4HlKWO3ZPoPtup1px4IvU0g6FOOVcPdVgpKFKsKNgdBt8eZgt9cEwcuPzuuiWgY/fK6nAezAqfQ=
